; generated by PrusaSlicer 2.4.1+win64 on 2022-09-02 at 13:09:23 UTC


;
;

;
;
; 

; external perimeters extrusion width = 0.45mm
; perimeters extrusion width = 0.45mm
; infill extrusion width = 0.45mm
; solid infill extrusion width = 0.45mm
; top infill extrusion width = 0.40mm
; first layer extrusion width = 0.42mm

M73 P0 R48
M107
;TYPE:Custom
G90 ; use absolute coordinates
M83 ; extruder relative mode
M104 S170 ; set extruder temp for bed leveling
M140 S60 ; set bed temp
M109 R170 ; wait for bed leveling temp
M190 S60 ; wait for bed temp
G28 ; home all without mesh bed level
G29 ; mesh bed leveling 
M104 S210 ; set extruder temp
G92 E0.0
G1 Y-2.0 X179 F2400
G1 Z3 F720
M109 S210 ; wait for extruder temp

; intro line
G1 X170 F1000
G1 Z0.2 F720
G1 X110.0 E8.0 F900
G1 X40.0 E10.0 F700
G92 E0.0

M221 S95 ; set flow
G21 ; set units to millimeters
G90 ; use absolute coordinates
M83 ; use relative distances for extrusion
M900 K0.2 ; Filament gcode LA 1.5
; ; Filament gcode LA 1.0
M107
;LAYER_CHANGE
;Z:0.2
;HEIGHT:0.2
;BEFORE_LAYER_CHANGE
G92 E0.0
;0.2


G1 E-3.2 F4200
G1 Z.2 F9000
;AFTER_LAYER_CHANGE
;0.2
G1 Z.4
G1 X46.771 Y55.809
G1 Z.2
G1 E3.2 F2400
M204 S800
;TYPE:Skirt/Brim
;WIDTH:0.42
G1 F1200
G1 X47.06 Y55.567 E.01182
G1 X48 Y55.373 E.03008
G1 X132 Y55.373 E2.63376
G1 X133.307 Y55.765 E.04278
G1 X134.183 Y56.81 E.04278
G1 X134.377 Y57.75 E.03008
G1 X134.377 Y113.25 E1.74016
G1 X133.985 Y114.557 E.04278
G1 X132.94 Y115.433 E.04278
G1 X132 Y115.627 E.03008
G1 X48 Y115.627 E2.63376
G1 X46.693 Y115.235 E.04278
G1 X45.817 Y114.19 E.04278
G1 X45.623 Y113.25 E.03008
G1 X45.623 Y57.75 E1.74016
G1 X46.015 Y56.443 E.04278
M73 P1 R48
G1 X46.725 Y55.847 E.02908
M204 S1250
; printing object sostegno_Cuscinetto_motore_base.STL id:0 copy 0
G1 E-2.24 F4200
;WIPE_START
G1 F7200
G1 X47.06 Y55.567 E-.24212
G1 X48 Y55.373 E-.53172
G1 X48.249 Y55.373 E-.13816
;WIPE_END
G1 E-.048 F4200
G1 Z.4 F9000
G1 X124.012 Y106.101
G1 Z.2
G1 E3.2 F2400
M204 S800
;TYPE:Perimeter
G1 F1200
G1 X124.381 Y105.553 E.02073
G1 X124.803 Y105.131 E.01868
G1 X125.291 Y104.789 E.01868
G1 X125.831 Y104.538 E.01868
G1 X126.406 Y104.383 E.01868
G1 X126.97 Y104.334 E.01774
G1 X127.589 Y104.382 E.01947
G1 X128.169 Y104.538 E.01883
G1 X128.709 Y104.789 E.01868
G1 X129.197 Y105.131 E.01868
G1 X129.619 Y105.553 E.01868
G1 X129.961 Y106.041 E.01868
G1 X130.212 Y106.581 E.01868
G1 X130.367 Y107.156 E.01868
G1 X130.419 Y107.75 E.01868
G1 X130.367 Y108.344 E.01868
G1 X130.212 Y108.919 E.01868
G1 X129.961 Y109.459 E.01868
G1 X129.619 Y109.947 E.01868
G1 X129.197 Y110.369 E.01868
G1 X128.709 Y110.711 E.01868
G1 X128.169 Y110.962 E.01868
G1 X127.594 Y111.117 E.01868
G1 X127 Y111.169 E.01868
G1 X126.406 Y111.117 E.01868
G1 X125.831 Y110.962 E.01868
G1 X125.291 Y110.711 E.01868
G1 X124.803 Y110.369 E.01868
G1 X124.381 Y109.947 E.01868
G1 X124.039 Y109.459 E.01868
G1 X123.788 Y108.919 E.01868
G1 X123.633 Y108.344 E.01869
G1 X123.581 Y107.75 E.01868
G1 X123.633 Y107.156 E.01868
G1 X123.788 Y106.581 E.01868
G1 X123.986 Y106.155 E.01473
M204 S1250
G1 X124.353 Y106.26 F9000
M204 S800
G1 F1200
G1 X124.671 Y105.796 E.01764
G1 X125.046 Y105.421 E.01662
G1 X125.48 Y105.117 E.01662
G1 X125.96 Y104.893 E.01662
G1 X126.472 Y104.756 E.01662
G1 X126.972 Y104.712 E.01573
G1 X127.525 Y104.755 E.0174
G1 X128.04 Y104.893 E.01671
G1 X128.52 Y105.117 E.01662
G1 X128.954 Y105.421 E.01662
G1 X129.329 Y105.796 E.01662
G1 X129.633 Y106.23 E.01662
G1 X129.857 Y106.71 E.01662
G1 X129.994 Y107.222 E.01662
G1 X130.04 Y107.75 E.01661
G1 X129.994 Y108.278 E.01662
G1 X129.857 Y108.79 E.01662
G1 X129.633 Y109.27 E.01662
G1 X129.329 Y109.704 E.01662
G1 X128.954 Y110.079 E.01662
G1 X128.52 Y110.383 E.01662
G1 X128.04 Y110.607 E.01662
G1 X127.528 Y110.744 E.01662
G1 X127 Y110.79 E.01661
G1 X126.472 Y110.744 E.01662
G1 X125.96 Y110.607 E.01661
G1 X125.48 Y110.383 E.01662
G1 X125.046 Y110.079 E.01662
G1 X124.671 Y109.704 E.01662
G1 X124.367 Y109.27 E.01662
G1 X124.143 Y108.79 E.01662
G1 X124.006 Y108.278 E.01662
G1 X123.96 Y107.75 E.01661
G1 X124.006 Y107.222 E.01662
G1 X124.143 Y106.71 E.01661
G1 X124.328 Y106.314 E.0137
M204 S1250
G1 X124.695 Y106.419 F9000
M204 S800
;TYPE:External perimeter
G1 F1200
G1 X124.961 Y106.039 E.01455
G1 X125.289 Y105.711 E.01455
G1 X125.669 Y105.445 E.01455
G1 X126.09 Y105.249 E.01455
G1 X126.538 Y105.129 E.01455
G1 X126.974 Y105.091 E.01372
G1 X127.461 Y105.129 E.01533
G1 X127.91 Y105.249 E.01458
G1 X128.331 Y105.445 E.01455
G1 X128.711 Y105.711 E.01455
G1 X129.039 Y106.039 E.01455
G1 X129.305 Y106.419 E.01455
G1 X129.501 Y106.84 E.01455
G1 X129.621 Y107.288 E.01455
G1 X129.662 Y107.75 E.01455
G1 X129.621 Y108.212 E.01455
G1 X129.501 Y108.66 E.01455
G1 X129.305 Y109.081 E.01455
G1 X129.039 Y109.461 E.01455
G1 X128.711 Y109.789 E.01455
G1 X128.331 Y110.055 E.01455
G1 X127.91 Y110.251 E.01455
G1 X127.462 Y110.371 E.01455
G1 X127 Y110.412 E.01455
G1 X126.538 Y110.371 E.01455
G1 X126.09 Y110.251 E.01455
G1 X125.669 Y110.055 E.01455
G1 X125.289 Y109.789 E.01455
G1 X124.961 Y109.461 E.01455
G1 X124.695 Y109.081 E.01455
G1 X124.499 Y108.66 E.01455
G1 X124.379 Y108.212 E.01455
G1 X124.338 Y107.75 E.01455
G1 X124.379 Y107.288 E.01455
G1 X124.499 Y106.84 E.01455
G1 X124.67 Y106.474 E.01267
M204 S1250
G1 X124.495 Y106.073 F9000
G1 E-2.24 F4200
;WIPE_START
G1 F7200
G1 X124.961 Y106.039 E-.2899
G1 X125.289 Y105.711 E-.2571
G1 X125.669 Y105.445 E-.2571
G1 X125.846 Y105.363 E-.1079
;WIPE_END
G1 E-.048 F4200
G1 Z.4 F9000
G1 X56.739 Y63.915
G1 Z.2
G1 E3.2 F2400
M204 S800
;TYPE:Perimeter
G1 F1200
G1 X56.797 Y63.25 E.02094
G1 X56.739 Y62.591 E.02075
G1 X56.568 Y61.951 E.02075
G1 X56.288 Y61.351 E.02075
G1 X55.909 Y60.809 E.02075
G1 X55.441 Y60.341 E.02075
G1 X54.899 Y59.962 E.02075
G1 X54.299 Y59.682 E.02075
G1 X53.653 Y59.509 E.02096
G1 X52.968 Y59.456 E.02154
G1 X52.341 Y59.511 E.01975
G1 X51.701 Y59.682 E.02075
G1 X51.101 Y59.962 E.02075
G1 X50.559 Y60.341 E.02075
G1 X50.091 Y60.809 E.02075
G1 X49.712 Y61.351 E.02075
G1 X49.541 Y61.717 E.01264
G1 X49.541 Y59.291 E.07605
G1 X130.459 Y59.291 E2.53711
G1 X130.459 Y61.717 E.07605
G1 X130.288 Y61.351 E.01264
G1 X129.909 Y60.809 E.02075
G1 X129.441 Y60.341 E.02075
G1 X128.899 Y59.962 E.02075
G1 X128.299 Y59.682 E.02075
G1 X127.653 Y59.509 E.02096
G1 X126.968 Y59.456 E.02154
G1 X126.341 Y59.511 E.01975
G1 X125.701 Y59.682 E.02075
G1 X125.101 Y59.962 E.02075
G1 X124.559 Y60.341 E.02075
G1 X124.091 Y60.809 E.02075
G1 X123.712 Y61.351 E.02075
G1 X123.432 Y61.951 E.02075
G1 X123.261 Y62.591 E.02075
G1 X123.203 Y63.25 E.02075
G1 X123.261 Y63.909 E.02075
G1 X123.432 Y64.549 E.02075
G1 X123.712 Y65.149 E.02075
G1 X124.091 Y65.691 E.02075
G1 X124.564 Y66.163 E.02096
G1 X125.13 Y66.552 E.02154
G1 X125.701 Y66.818 E.01975
G1 X126.341 Y66.989 E.02075
G1 X127 Y67.047 E.02075
G1 X127.659 Y66.989 E.02075
G1 X128.305 Y66.816 E.02096
G1 X128.925 Y66.52 E.02154
G1 X129.441 Y66.159 E.01975
G1 X129.909 Y65.691 E.02075
G1 X130.288 Y65.149 E.02075
G1 X130.459 Y64.783 E.01264
G1 X130.459 Y106.217 E1.29912
G1 X130.288 Y105.851 E.01264
G1 X129.909 Y105.309 E.02075
G1 X129.441 Y104.841 E.02075
G1 X128.899 Y104.462 E.02075
G1 X128.299 Y104.182 E.02075
G1 X127.653 Y104.009 E.02096
G1 X126.968 Y103.956 E.02154
G1 X126.341 Y104.011 E.01975
G1 X125.701 Y104.182 E.02075
G1 X125.101 Y104.462 E.02075
G1 X124.559 Y104.841 E.02075
G1 X124.091 Y105.309 E.02075
G1 X123.712 Y105.851 E.02075
G1 X123.432 Y106.451 E.02075
G1 X123.261 Y107.091 E.02075
G1 X123.203 Y107.75 E.02075
G1 X123.261 Y108.409 E.02075
G1 X123.432 Y109.049 E.02075
G1 X123.712 Y109.649 E.02075
G1 X124.091 Y110.191 E.02075
G1 X124.559 Y110.659 E.02075
G1 X125.101 Y111.038 E.02075
G1 X125.701 Y111.318 E.02075
G1 X126.341 Y111.489 E.02075
G1 X127 Y111.547 E.02075
G1 X127.659 Y111.489 E.02075
G1 X128.299 Y111.318 E.02075
G1 X128.899 Y111.038 E.02075
G1 X129.441 Y110.659 E.02075
G1 X129.909 Y110.191 E.02075
G1 X130.288 Y109.649 E.02075
G1 X130.459 Y109.283 E.01264
G1 X130.459 Y111.709 E.07605
G1 X49.541 Y111.709 E2.53711
G1 X49.541 Y109.283 E.07605
M73 P1 R47
G1 X49.699 Y109.623 E.01174
G1 X50.087 Y110.187 E.02145
G1 X50.559 Y110.659 E.02094
G1 X51.101 Y111.038 E.02075
G1 X51.701 Y111.318 E.02075
G1 X52.341 Y111.489 E.02075
G1 X53 Y111.547 E.02075
G1 X53.659 Y111.489 E.02075
G1 X54.299 Y111.318 E.02075
G1 X54.899 Y111.038 E.02075
G1 X55.441 Y110.659 E.02075
G1 X55.909 Y110.191 E.02075
G1 X56.288 Y109.649 E.02075
G1 X56.556 Y109.075 E.01986
G1 X56.739 Y108.415 E.02145
G1 X56.797 Y107.75 E.02094
G1 X56.739 Y107.091 E.02075
G1 X56.568 Y106.451 E.02075
G1 X56.288 Y105.851 E.02075
G1 X55.909 Y105.309 E.02075
G1 X55.441 Y104.841 E.02075
G1 X54.899 Y104.462 E.02075
G1 X54.299 Y104.182 E.02075
G1 X53.653 Y104.009 E.02096
G1 X52.968 Y103.956 E.02154
G1 X52.341 Y104.011 E.01975
G1 X51.701 Y104.182 E.02075
G1 X51.101 Y104.462 E.02075
G1 X50.559 Y104.841 E.02075
G1 X50.091 Y105.309 E.02075
G1 X49.712 Y105.851 E.02075
G1 X49.541 Y106.217 E.01264
G1 X49.541 Y64.783 E1.29912
G1 X49.712 Y65.149 E.01264
G1 X50.091 Y65.691 E.02075
G1 X50.559 Y66.159 E.02075
G1 X51.101 Y66.538 E.02075
G1 X51.701 Y66.818 E.02075
G1 X52.341 Y66.989 E.02075
G1 X53 Y67.047 E.02075
G1 X53.659 Y66.989 E.02075
G1 X54.299 Y66.818 E.02075
G1 X54.899 Y66.538 E.02075
G1 X55.441 Y66.159 E.02075
G1 X55.909 Y65.691 E.02075
G1 X56.288 Y65.149 E.02075
G1 X56.556 Y64.575 E.01986
G1 X56.723 Y63.973 E.01957
M204 S1250
G1 E-2.24 F4200
;WIPE_START
G1 F7200
G1 X56.797 Y63.25 E-.40282
G1 X56.739 Y62.591 E-.36678
G1 X56.673 Y62.342 E-.1424
;WIPE_END
G1 E-.048 F4200
G1 Z.4 F9000
G1 X126.934 Y66.663
G1 Z.2
G1 E3.2 F2400
M204 S800
G1 F1200
G1 X126.406 Y66.617 E.01662
G1 X125.831 Y66.462 E.01868
G1 X125.318 Y66.223 E.01774
G1 X124.806 Y65.872 E.01947
G1 X124.381 Y65.447 E.01883
G1 X124.039 Y64.959 E.01868
G1 X123.788 Y64.419 E.01868
G1 X123.633 Y63.844 E.01869
G1 X123.581 Y63.25 E.01868
G1 X123.633 Y62.656 E.01868
G1 X123.788 Y62.081 E.01868
G1 X124.039 Y61.541 E.01868
G1 X124.381 Y61.053 E.01868
G1 X124.803 Y60.631 E.01868
G1 X125.291 Y60.289 E.01868
G1 X125.831 Y60.038 E.01868
G1 X126.406 Y59.883 E.01869
G1 X126.97 Y59.834 E.01774
G1 X127.589 Y59.882 E.01947
G1 X128.169 Y60.038 E.01883
G1 X128.709 Y60.289 E.01868
G1 X129.197 Y60.631 E.01868
G1 X129.619 Y61.053 E.01868
G1 X129.961 Y61.541 E.01868
G1 X130.212 Y62.081 E.01868
G1 X130.367 Y62.656 E.01868
G1 X130.419 Y63.25 E.01868
G1 X130.367 Y63.844 E.01868
G1 X130.212 Y64.419 E.01868
G1 X129.961 Y64.959 E.01868
G1 X129.619 Y65.447 E.01868
G1 X129.197 Y65.869 E.01868
G1 X128.734 Y66.193 E.01774
G1 X128.174 Y66.461 E.01947
G1 X127.594 Y66.617 E.01883
G1 X126.994 Y66.668 E.01887
M204 S1250
G1 X127.033 Y66.287 F9000
M204 S800
G1 F1200
G1 X126.472 Y66.244 E.01763
G1 X125.96 Y66.107 E.01661
G1 X125.506 Y65.895 E.01573
G1 X125.048 Y65.581 E.0174
G1 X124.671 Y65.204 E.01671
G1 X124.367 Y64.77 E.01662
G1 X124.143 Y64.29 E.01662
G1 X124.006 Y63.778 E.01662
G1 X123.96 Y63.25 E.01661
G1 X124.006 Y62.722 E.01662
G1 X124.143 Y62.21 E.01661
G1 X124.367 Y61.73 E.01662
G1 X124.671 Y61.296 E.01662
G1 X125.046 Y60.921 E.01662
G1 X125.48 Y60.617 E.01662
G1 X125.96 Y60.393 E.01662
G1 X126.472 Y60.256 E.01662
G1 X126.972 Y60.212 E.01573
G1 X127.525 Y60.255 E.0174
G1 X128.04 Y60.393 E.01671
G1 X128.52 Y60.617 E.01662
G1 X128.954 Y60.921 E.01662
G1 X129.329 Y61.296 E.01662
G1 X129.633 Y61.73 E.01662
G1 X129.857 Y62.21 E.01662
G1 X129.994 Y62.722 E.01662
G1 X130.04 Y63.25 E.01661
G1 X129.994 Y63.778 E.01662
G1 X129.857 Y64.29 E.01662
G1 X129.633 Y64.77 E.01662
G1 X129.329 Y65.204 E.01662
G1 X128.954 Y65.579 E.01662
G1 X128.543 Y65.867 E.01573
G1 X128.043 Y66.106 E.0174
G1 X127.528 Y66.244 E.01671
G1 X127.093 Y66.282 E.0137
M204 S1250
G1 X127 Y65.912 F9000
M204 S800
;TYPE:External perimeter
G1 F1200
G1 X126.538 Y65.871 E.01455
G1 X126.09 Y65.751 E.01455
G1 X125.693 Y65.566 E.01372
G1 X125.29 Y65.29 E.01533
G1 X124.961 Y64.961 E.01458
G1 X124.695 Y64.581 E.01455
G1 X124.499 Y64.16 E.01455
G1 X124.379 Y63.712 E.01455
G1 X124.338 Y63.25 E.01455
G1 X124.379 Y62.788 E.01455
G1 X124.499 Y62.34 E.01455
G1 X124.695 Y61.919 E.01455
G1 X124.961 Y61.539 E.01455
G1 X125.289 Y61.211 E.01455
G1 X125.669 Y60.945 E.01455
G1 X126.09 Y60.749 E.01455
G1 X126.538 Y60.629 E.01455
G1 X126.974 Y60.591 E.01372
G1 X127.461 Y60.629 E.01533
G1 X127.91 Y60.749 E.01458
G1 X128.331 Y60.945 E.01455
G1 X128.711 Y61.211 E.01455
G1 X129.039 Y61.539 E.01455
G1 X129.305 Y61.919 E.01455
G1 X129.501 Y62.34 E.01455
G1 X129.621 Y62.788 E.01455
G1 X129.662 Y63.25 E.01455
G1 X129.621 Y63.712 E.01455
G1 X129.501 Y64.16 E.01455
G1 X129.305 Y64.581 E.01455
G1 X129.039 Y64.961 E.01455
G1 X128.711 Y65.289 E.01455
G1 X128.352 Y65.54 E.01372
G1 X127.911 Y65.751 E.01533
G1 X127.462 Y65.871 E.01458
G1 X127.06 Y65.906 E.01266
M204 S1250
G1 X126.8 Y66.258 F9000
G1 E-2.24 F4200
;WIPE_START
G1 F7200
G1 X126.538 Y65.871 E-.28991
G1 X126.09 Y65.751 E-.25709
G1 X125.693 Y65.566 E-.2425
G1 X125.511 Y65.441 E-.1225
;WIPE_END
G1 E-.048 F4200
G1 Z.4 F9000
G1 X56.413 Y63.184
G1 Z.2
G1 E3.2 F2400
M204 S800
;TYPE:Perimeter
G1 F1200
G1 X56.366 Y63.848 E.02086
G1 X56.201 Y64.444 E.01939
G1 X55.961 Y64.959 E.01784
G1 X55.619 Y65.447 E.01868
G1 X55.197 Y65.869 E.01868
G1 X54.709 Y66.211 E.01868
G1 X54.169 Y66.462 E.01868
G1 X53.594 Y66.617 E.01868
G1 X53 Y66.669 E.01868
G1 X52.406 Y66.617 E.01868
G1 X51.831 Y66.462 E.01868
G1 X51.291 Y66.211 E.01868
G1 X50.803 Y65.869 E.01868
G1 X50.381 Y65.447 E.01868
G1 X50.039 Y64.959 E.01868
G1 X49.788 Y64.419 E.01868
G1 X49.633 Y63.844 E.01869
G1 X49.581 Y63.25 E.01868
G1 X49.633 Y62.656 E.01868
G1 X49.788 Y62.081 E.01868
G1 X50.039 Y61.541 E.01868
G1 X50.381 Y61.053 E.01868
G1 X50.803 Y60.631 E.01868
G1 X51.291 Y60.289 E.01868
G1 X51.831 Y60.038 E.01868
G1 X52.406 Y59.883 E.01869
G1 X52.97 Y59.834 E.01774
G1 X53.589 Y59.882 E.01947
G1 X54.169 Y60.038 E.01883
G1 X54.709 Y60.289 E.01868
G1 X55.197 Y60.631 E.01868
G1 X55.619 Y61.053 E.01868
G1 X55.961 Y61.541 E.01868
M73 P2 R47
G1 X56.212 Y62.081 E.01868
G1 X56.367 Y62.656 E.01868
G1 X56.408 Y63.125 E.01473
M204 S1250
G1 X56.037 Y63.217 F9000
M204 S800
G1 F1200
G1 X55.994 Y63.78 E.01772
G1 X55.846 Y64.313 E.01732
G1 X55.633 Y64.77 E.01582
G1 X55.329 Y65.204 E.01662
G1 X54.954 Y65.579 E.01662
G1 X54.52 Y65.883 E.01662
G1 X54.04 Y66.107 E.01662
G1 X53.528 Y66.244 E.01662
G1 X53 Y66.29 E.01661
G1 X52.472 Y66.244 E.01662
G1 X51.96 Y66.107 E.01662
G1 X51.48 Y65.883 E.01662
G1 X51.046 Y65.579 E.01661
G1 X50.671 Y65.204 E.01662
G1 X50.367 Y64.77 E.01662
G1 X50.143 Y64.29 E.01662
G1 X50.006 Y63.778 E.01662
G1 X49.96 Y63.25 E.01661
G1 X50.006 Y62.722 E.01662
G1 X50.143 Y62.21 E.01661
G1 X50.367 Y61.73 E.01662
G1 X50.671 Y61.296 E.01662
G1 X51.046 Y60.921 E.01662
G1 X51.48 Y60.617 E.01662
G1 X51.96 Y60.393 E.01662
G1 X52.472 Y60.256 E.01662
G1 X52.972 Y60.212 E.01573
G1 X53.525 Y60.255 E.0174
G1 X54.04 Y60.393 E.01671
G1 X54.52 Y60.617 E.01662
G1 X54.954 Y60.921 E.01661
G1 X55.329 Y61.296 E.01662
G1 X55.633 Y61.73 E.01662
G1 X55.857 Y62.21 E.01662
G1 X55.994 Y62.722 E.01662
G1 X56.032 Y63.157 E.0137
M204 S1250
G1 X55.662 Y63.25 F9000
M204 S800
;TYPE:External perimeter
G1 F1200
G1 X55.621 Y63.713 E.01458
G1 X55.491 Y64.182 E.01525
G1 X55.305 Y64.581 E.01381
G1 X55.039 Y64.961 E.01455
G1 X54.711 Y65.289 E.01455
G1 X54.331 Y65.555 E.01455
G1 X53.91 Y65.751 E.01455
G1 X53.462 Y65.871 E.01455
G1 X53 Y65.912 E.01455
G1 X52.538 Y65.871 E.01455
G1 X52.09 Y65.751 E.01455
G1 X51.669 Y65.555 E.01455
G1 X51.289 Y65.289 E.01455
G1 X50.961 Y64.961 E.01455
G1 X50.695 Y64.581 E.01455
G1 X50.499 Y64.16 E.01455
G1 X50.379 Y63.712 E.01455
G1 X50.338 Y63.25 E.01455
G1 X50.379 Y62.788 E.01455
G1 X50.499 Y62.34 E.01455
G1 X50.695 Y61.919 E.01455
G1 X50.961 Y61.539 E.01455
G1 X51.289 Y61.211 E.01455
G1 X51.669 Y60.945 E.01455
G1 X52.09 Y60.749 E.01455
G1 X52.538 Y60.629 E.01455
G1 X52.974 Y60.591 E.01372
G1 X53.461 Y60.629 E.01533
G1 X53.91 Y60.749 E.01458
G1 X54.331 Y60.945 E.01455
G1 X54.711 Y61.211 E.01455
G1 X55.039 Y61.539 E.01455
G1 X55.305 Y61.919 E.01455
G1 X55.501 Y62.34 E.01455
G1 X55.621 Y62.788 E.01455
G1 X55.656 Y63.19 E.01266
M204 S1250
